apps/scalable/minbar-prayer-times.svg

<?xml version="1.0" encoding="UTF-8" standalone="no"?>
<!-- Generator: Adobe Illustrator 19.0.0, SVG Export Plug-In . SVG Version: 6.00 Build 0)  -->

<svg
   xmlns:dc="http://purl.org/dc/elements/1.1/"
   xmlns:cc="http://creativecommons.org/ns#"
   xmlns:rdf="http://www.w3.org/1999/02/22-rdf-syntax-ns#"
   xmlns:svg="http://www.w3.org/2000/svg"
   xmlns="http://www.w3.org/2000/svg"
   xmlns:sodipodi="http://sodipodi.sourceforge.net/DTD/sodipodi-0.dtd"
   xmlns:inkscape="http://www.inkscape.org/namespaces/inkscape"
   version="1.1"
   id="Layer_1"
   x="0px"
   y="0px"
   viewBox="0 0 500 500"
   xml:space="preserve"
   inkscape:version="0.91 r13725"
   width="100%"
   height="100%"
   sodipodi:docname="minbar-prayer-times.svg"><metadata
     id="metadata57"><rdf:RDF><cc:Work
         rdf:about=""><dc:format>image/svg+xml</dc:format><dc:type
           rdf:resource="http://purl.org/dc/dcmitype/StillImage" /></cc:Work></rdf:RDF></metadata><defs
     id="defs55" /><sodipodi:namedview
     pagecolor="#ffffff"
     bordercolor="#666666"
     borderopacity="1"
     objecttolerance="10"
     gridtolerance="10"
     guidetolerance="10"
     inkscape:pageopacity="0"
     inkscape:pageshadow="2"
     inkscape:window-width="1366"
     inkscape:window-height="715"
     id="namedview53"
     showgrid="false"
     inkscape:zoom="0.26279755"
     inkscape:cx="-434.76814"
     inkscape:cy="397.81081"
     inkscape:window-x="0"
     inkscape:window-y="24"
     inkscape:window-maximized="1"
     inkscape:current-layer="Layer_1" /><g
     id="g23"
     transform="translate(0,39.767)" /><g
     id="g25"
     transform="translate(0,39.767)" /><g
     id="g27"
     transform="translate(0,39.767)" /><g
     id="g29"
     transform="translate(0,39.767)" /><g
     id="g31"
     transform="translate(0,39.767)" /><g
     id="g33"
     transform="translate(0,39.767)" /><g
     id="g35"
     transform="translate(0,39.767)" /><g
     id="g37"
     transform="translate(0,39.767)" /><g
     id="g39"
     transform="translate(0,39.767)" /><g
     id="g41"
     transform="translate(0,39.767)" /><g
     id="g43"
     transform="translate(0,39.767)" /><g
     id="g45"
     transform="translate(0,39.767)" /><g
     id="g47"
     transform="translate(0,39.767)" /><g
     id="g49"
     transform="translate(0,39.767)" /><g
     id="g51"
     transform="translate(0,39.767)" /><g
     id="g4162"><rect
       transform="matrix(0.81899723,0.57379747,-0.57379747,0.81899723,0,0)"
       y="-0.34067854"
       x="245.58458"
       height="19.562229"
       width="228.73415"
       id="rect4186"
       style="fill:#c87137;fill-opacity:1;stroke:none;stroke-width:3;stroke-miterlimit:4;stroke-dasharray:none;stroke-opacity:1" /><rect
       y="34.214443"
       x="160.28456"
       height="37.095066"
       width="8.150032"
       id="rect4167-3"
       style="fill:#ffcc00;fill-opacity:1;stroke:none;stroke-width:3;stroke-miterlimit:4;stroke-dasharray:none;stroke-opacity:1" /><path
       id="path4165"
       d="m 163.39062,55.023438 c -37.76382,0.339471 -41.6875,35.871093 -41.6875,35.871093 l -0.64648,176.441409 49.41406,-2.54297 -30.1875,0 0,-147.61328 50.16016,0 0,146.58593 18.51172,-0.95312 -0.64649,-171.271484 c 0,0 -7.15411,-36.856935 -44.91797,-36.517578 z"
       style="fill:#45d03f;fill-opacity:1;fill-rule:evenodd;stroke:none;stroke-width:1px;stroke-linecap:butt;stroke-linejoin:miter;stroke-opacity:1"
       inkscape:connector-curvature="0" /><path
       id="path4163"
       d="m 110.4668,260.22266 1.82812,224.84765 263.69336,0 0.45703,-109.68164 -81.80273,0.45703 0.45703,-58.03906 -81.34766,-0.45703 0.45703,-56.66992 -103.74218,-0.45703 z m 30.32617,68.54296 214.37891,133.56446 -215.25586,0 0.87695,-133.56446 z"
       style="fill:#c87137;fill-rule:evenodd;stroke:none;stroke-width:1px;stroke-linecap:butt;stroke-linejoin:miter;stroke-opacity:1;fill-opacity:1"
       inkscape:connector-curvature="0" /><path
       sodipodi:nodetypes="czzzczzzc"
       inkscape:connector-curvature="0"
       id="path4184"
       d="m 157.89653,14.306729 c 0,0 -7.76591,6.664712 -7.05057,12.110126 0.71534,5.445375 3.04848,11.198514 13.6752,11.3185 10.62672,0.119908 13.92943,-6.41375 14.34111,-11.992523 0.41169,-5.578773 -8.03962,-11.597672 -8.03962,-11.597672 0,0 3.29679,7.602611 1.91119,10.380103 -1.38559,2.777453 -5.24887,5.33077 -8.21268,5.343491 -2.96381,0.01153 -6.61756,-2.587906 -8.03151,-5.343491 -1.41396,-2.755586 1.40688,-10.218534 1.40688,-10.218534 z"
       style="fill:#ffcc00;fill-opacity:1;fill-rule:evenodd;stroke:none;stroke-width:1px;stroke-linecap:butt;stroke-linejoin:miter;stroke-opacity:1" /><rect
       transform="matrix(-3.4142244e-4,0.99999994,-1,-7.7696975e-5,0,0)"
       y="-376.72391"
       x="271.07059"
       height="15.211301"
       width="110.66027"
       id="rect4186-6"
       style="fill:#c87137;fill-opacity:1;stroke:none;stroke-width:3;stroke-miterlimit:4;stroke-dasharray:none;stroke-opacity:1" /><rect
       transform="matrix(-3.4142244e-4,0.99999994,-1,-7.7696975e-5,0,0)"
       y="-295.22275"
       x="216.05484"
       height="15.211301"
       width="110.66027"
       id="rect4186-6-7"
       style="fill:#c87137;fill-opacity:1;stroke:none;stroke-width:3;stroke-miterlimit:4;stroke-dasharray:none;stroke-opacity:1" /></g></svg>

<?xml version="1.0" encoding="UTF-8" standalone="no"?>
<!-- Generator: Adobe Illustrator 19.0.0, SVG Export Plug-In . SVG Version: 6.00 Build 0)  -->

<svg
   xmlns:dc="http://purl.org/dc/elements/1.1/"
   xmlns:cc="http://creativecommons.org/ns#"
   xmlns:rdf="http://www.w3.org/1999/02/22-rdf-syntax-ns#"
   xmlns:svg="http://www.w3.org/2000/svg"
   xmlns="http://www.w3.org/2000/svg"
   xmlns:sodipodi="http://sodipodi.sourceforge.net/DTD/sodipodi-0.dtd"
   xmlns:inkscape="http://www.inkscape.org/namespaces/inkscape"
   version="1.1"
   id="Layer_1"
   x="0px"
   y="0px"
   viewBox="0 0 500 500"
   xml:space="preserve"
   inkscape:version="0.91 r13725"
   width="100%"
   height="100%"
   sodipodi:docname="minbar.svg"><metadata
     id="metadata57"><rdf:RDF><cc:Work
         rdf:about=""><dc:format>image/svg+xml</dc:format><dc:type
           rdf:resource="http://purl.org/dc/dcmitype/StillImage" /></cc:Work></rdf:RDF></metadata><defs
     id="defs55" /><sodipodi:namedview
     pagecolor="#ffffff"
     bordercolor="#666666"
     borderopacity="1"
     objecttolerance="10"
     gridtolerance="10"
     guidetolerance="10"
     inkscape:pageopacity="0"
     inkscape:pageshadow="2"
     inkscape:window-width="1366"
     inkscape:window-height="715"
     id="namedview53"
     showgrid="false"
     inkscape:zoom="0.74330372"
     inkscape:cx="416.84074"
     inkscape:cy="119.76311"
     inkscape:window-x="0"
     inkscape:window-y="24"
     inkscape:window-maximized="1"
     inkscape:current-layer="Layer_1" /><g
     id="g23"
     transform="translate(0,39.767)" /><g
     id="g25"
     transform="translate(0,39.767)" /><g
     id="g27"
     transform="translate(0,39.767)" /><g
     id="g29"
     transform="translate(0,39.767)" /><g
     id="g31"
     transform="translate(0,39.767)" /><g
     id="g33"
     transform="translate(0,39.767)" /><g
     id="g35"
     transform="translate(0,39.767)" /><g
     id="g37"
     transform="translate(0,39.767)" /><g
     id="g39"
     transform="translate(0,39.767)" /><g
     id="g41"
     transform="translate(0,39.767)" /><g
     id="g43"
     transform="translate(0,39.767)" /><g
     id="g45"
     transform="translate(0,39.767)" /><g
     id="g47"
     transform="translate(0,39.767)" /><g
     id="g49"
     transform="translate(0,39.767)" /><g
     id="g51"
     transform="translate(0,39.767)" /><g
     id="g4178"><rect
       transform="matrix(0.81899723,0.57379747,-0.57379747,0.81899723,0,0)"
       y="-0.34067854"
       x="245.58458"
       height="19.562229"
       width="228.73415"
       id="rect4186"
       style="fill:#502d16;fill-opacity:1;stroke:none;stroke-width:3;stroke-miterlimit:4;stroke-dasharray:none;stroke-opacity:1" /><rect
       y="34.214443"
       x="160.28456"
       height="37.095066"
       width="8.150032"
       id="rect4167-3"
       style="fill:#ffcc00;fill-opacity:1;stroke:none;stroke-width:3;stroke-miterlimit:4;stroke-dasharray:none;stroke-opacity:1" /><path
       id="path4165"
       d="M 163.39062 55.023438 C 125.6268 55.362909 121.70312 90.894531 121.70312 90.894531 L 121.05664 267.33594 L 170.4707 264.79297 L 140.2832 264.79297 L 140.2832 117.17969 L 190.44336 117.17969 L 190.44336 263.76562 L 208.95508 262.8125 L 208.30859 91.541016 C 208.30859 91.541016 201.15448 54.684081 163.39062 55.023438 z "
       style="fill:#45d03f;fill-opacity:1;fill-rule:evenodd;stroke:none;stroke-width:1px;stroke-linecap:butt;stroke-linejoin:miter;stroke-opacity:1" /><path
       id="path4163"
       d="M 110.4668 260.22266 L 112.29492 485.07031 L 375.98828 485.07031 L 376.44531 375.38867 L 294.64258 375.8457 L 295.09961 317.80664 L 213.75195 317.34961 L 214.20898 260.67969 L 110.4668 260.22266 z M 140.79297 328.76562 L 355.17188 462.33008 L 139.91602 462.33008 L 140.79297 328.76562 z "
       style="fill:#502d16;fill-rule:evenodd;stroke:none;stroke-width:1px;stroke-linecap:butt;stroke-linejoin:miter;stroke-opacity:1" /><path
       sodipodi:nodetypes="czzzczzzc"
       inkscape:connector-curvature="0"
       id="path4184"
       d="m 157.89653,14.306729 c 0,0 -7.76591,6.664712 -7.05057,12.110126 0.71534,5.445375 3.04848,11.198514 13.6752,11.3185 10.62672,0.119908 13.92943,-6.41375 14.34111,-11.992523 0.41169,-5.578773 -8.03962,-11.597672 -8.03962,-11.597672 0,0 3.29679,7.602611 1.91119,10.380103 -1.38559,2.777453 -5.24887,5.33077 -8.21268,5.343491 -2.96381,0.01153 -6.61756,-2.587906 -8.03151,-5.343491 -1.41396,-2.755586 1.40688,-10.218534 1.40688,-10.218534 z"
       style="fill:#ffcc00;fill-opacity:1;fill-rule:evenodd;stroke:none;stroke-width:1px;stroke-linecap:butt;stroke-linejoin:miter;stroke-opacity:1" /><rect
       transform="matrix(-3.4142244e-4,0.99999994,-1,-7.7696975e-5,0,0)"
       y="-376.72391"
       x="271.07059"
       height="15.211301"
       width="110.66027"
       id="rect4186-6"
       style="fill:#502d16;fill-opacity:1;stroke:none;stroke-width:3;stroke-miterlimit:4;stroke-dasharray:none;stroke-opacity:1" /><rect
       transform="matrix(-3.4142244e-4,0.99999994,-1,-7.7696975e-5,0,0)"
       y="-295.22275"
       x="216.05484"
       height="15.211301"
       width="110.66027"
       id="rect4186-6-7"
       style="fill:#502d16;fill-opacity:1;stroke:none;stroke-width:3;stroke-miterlimit:4;stroke-dasharray:none;stroke-opacity:1" /></g></svg>
